react-docker/public/hero_md.svg

<svg width="834" height="1091" viewBox="0 0 834 1091" fill="none" xmlns="http://www.w3.org/2000/svg">
<mask id="mask0_2945_280" style="mask-type:alpha" maskUnits="userSpaceOnUse" x="528" y="114" width="718" height="718">
<path d="M940.938 827.416C745.188 857.176 562.373 722.624 532.611 526.886C502.848 331.147 637.409 148.344 833.16 118.584C1028.91 88.8238 1211.73 223.376 1241.49 419.114C1271.25 614.852 1136.69 797.655 940.938 827.416Z" fill="#E73C31"/>
</mask>
<g mask="url(#mask0_2945_280)">
<rect width="358.489" height="717.022" rx="16" transform="matrix(0.150323 0.988637 -0.98864 0.150305 1241.49 419.114)" fill="#4193F3"/>
</g>
<mask id="mask1_2945_280" style="mask-type:alpha" maskUnits="userSpaceOnUse" x="-35" y="470" width="531" height="532">
<path d="M114.683 497.466C246.449 433.42 405.19 488.311 469.241 620.069C533.292 751.827 478.397 910.558 346.631 974.604C214.864 1038.65 56.1233 983.76 -7.92739 852.002C-71.9781 720.244 -17.0837 561.513 114.683 497.466Z" fill="#D4AF2A"/>
</mask>
<g mask="url(#mask1_2945_280)">
<rect width="265.264" height="265.273" rx="16" transform="matrix(-0.437202 -0.899363 0.899385 -0.437157 -7.92734 852.002)" fill="#D4AF2A"/>
</g>
<path d="M680.533 -6.50355C674.949 -17.4818 683.345 -30.3877 695.644 -29.734L960.987 -15.6319C973.287 -14.9782 980.267 -1.25563 973.55 9.06889L828.665 231.797C821.949 242.121 806.575 241.305 800.991 230.327L680.533 -6.50355Z" fill="#E73C31"/>
<ellipse cx="34.6828" cy="34.6812" rx="34.6828" ry="34.6812" transform="matrix(0.920655 0.390378 -0.390421 0.920637 405.37 628.85)" fill="#E73C31"/>
<ellipse cx="34.6828" cy="34.6812" rx="34.6828" ry="34.6812" transform="matrix(0.920655 0.390378 -0.390421 0.920637 378.29 692.708)" fill="#E73C31"/>
<ellipse cx="34.6828" cy="34.6812" rx="34.6828" ry="34.6812" transform="matrix(0.920655 0.390378 -0.390421 0.920637 351.209 756.565)" fill="#E73C31"/>
<ellipse cx="34.6828" cy="34.6812" rx="34.6828" ry="34.6812" transform="matrix(0.920655 0.390378 -0.390421 0.920637 324.129 820.423)" fill="#E73C31"/>
<path d="M515.723 -18.0432C518.999 -24.7077 528.798 -23.7 530.649 -16.5081L552.497 68.3655C553.079 70.6266 554.62 72.5206 556.715 73.5506L635.37 112.213C642.035 115.489 641.027 125.289 633.834 127.14L548.957 148.986C546.696 149.568 544.802 151.109 543.771 153.204L505.106 231.855C501.829 238.519 492.03 237.512 490.179 230.32L468.331 145.446C467.749 143.185 466.208 141.291 464.113 140.261L385.459 101.598C378.794 98.3223 379.802 88.5227 386.994 86.6715L471.871 64.8257C474.133 64.2437 476.027 62.7029 477.057 60.6076L515.723 -18.0432Z" fill="#4193F3"/>
<path d="M239.457 128.916C239.457 344.448 64.722 519.172 -150.824 519.172C-366.371 519.172 -541.106 344.448 -541.106 128.916C-541.106 -86.617 -366.371 -261.341 -150.824 -261.341C64.722 -261.341 239.457 -86.617 239.457 128.916Z" fill="#E73C31"/>
<path d="M59.2174 128.916C59.2174 244.911 -34.8215 338.944 -150.824 338.944C-266.827 338.944 -360.866 244.911 -360.866 128.916C-360.866 12.9202 -266.827 -81.1128 -150.824 -81.1128C-34.8215 -81.1128 59.2174 12.9202 59.2174 128.916Z" fill="#F9F7F2"/>
</svg>

<?xml version="1.0" encoding="UTF-8"?>
<svg id="Layer_1" xmlns="http://www.w3.org/2000/svg" version="1.1" viewBox="0 0 834 1091">
  <!-- Generator: Adobe Illustrator 29.5.1, SVG Export Plug-In . SVG Version: 2.1.0 Build 141)  -->
  <defs>
    <style>
      .st0 {
        fill: #d4af2a;
      }

      .st1 {
        fill: #e73c31;
      }

      .st2 {
        fill: #4193f3;
      }
    </style>
  </defs>
  <path class="st0" d="M216.27,743.03L6.46,845.01c-6.98,3.39-15.23,1.24-19.73-4.73-53.73-125.4-3.18-271.52,116.54-336.91,7.23-1.89,15.01,1.51,18.41,8.49l101.98,209.79c3.86,7.94.55,17.52-7.39,21.38Z"/>
  <g id="mask1_2945_280">
    <path class="st0" d="M216.27,743.03L6.46,845.01c-6.98,3.39-15.23,1.24-19.73-4.73-53.73-125.4-3.18-271.52,116.54-336.91,7.23-1.89,15.01,1.51,18.41,8.49l101.98,209.79c3.86,7.94.55,17.52-7.39,21.38Z"/>
  </g>
  <path class="st1" d="M680.53-6.5c-5.58-10.98,2.81-23.88,15.11-23.23l265.34,14.1c12.3.65,19.28,14.38,12.56,24.7l-144.89,222.73c-6.72,10.32-22.09,9.51-27.67-1.47L680.53-6.5Z"/>
  <circle class="st1" cx="423.76" cy="674.32" r="34.68" transform="translate(-252.63 1094.76) rotate(-89.72)"/>
  <circle class="st1" cx="396.68" cy="738.18" r="34.68" transform="translate(-343.43 1131.23) rotate(-89.72)"/>
  <circle class="st1" cx="369.6" cy="802.03" r="34.68" transform="translate(-434.24 1167.69) rotate(-89.72)"/>
  <circle class="st1" cx="342.52" cy="865.89" r="34.68" transform="translate(-525.04 1204.16) rotate(-89.72)"/>
  <path class="st2" d="M515.72-18.04c3.28-6.66,13.07-5.66,14.93,1.54l21.85,84.87c.58,2.26,2.12,4.16,4.22,5.19l78.65,38.66c6.66,3.28,5.66,13.08-1.54,14.93l-84.88,21.85c-2.26.58-4.15,2.12-5.19,4.22l-38.67,78.65c-3.28,6.66-13.08,5.66-14.93-1.53l-21.85-84.87c-.58-2.26-2.12-4.15-4.22-5.18l-78.65-38.66c-6.67-3.28-5.66-13.08,1.53-14.93l84.88-21.85c2.26-.58,4.16-2.12,5.19-4.22l38.67-78.65Z"/>
  <path class="st1" d="M-150.82-261.34c-215.55,0-390.29,174.72-390.29,390.26s174.74,390.25,390.29,390.25S239.46,344.45,239.46,128.92,64.72-261.34-150.82-261.34ZM-150.82,338.94c-116.01,0-210.05-94.03-210.05-210.02s94.04-210.03,210.05-210.03S59.22,12.92,59.22,128.92s-94.04,210.02-210.04,210.02Z"/>
  <path class="st2" d="M1218.11,423.76c9.05-1.38,17.38,5.11,18.34,14.22,19.65,187.59-111.56,359.33-299.98,387.99-188.42,28.66-364.75-96.31-401.76-281.26-1.8-8.98,4.23-17.65,13.28-19.03l670.12-101.92h0Z"/>
</svg>
